X: 12447
T: Farewell To Cailroe
R: reel
M: 4/4
K: Amajor
E|A2EC DCDE|(3CB,A, CE A2Bd|(3efe ^df eAcA|BGAB GED=G|
EFGE AGED|dece d2cd|efed BA~A2|BeGB A3:|
E|A2ec dcdB|ceBe AGED|B,CDB, EDEF|GEBG AGEc|
A2EA CAEA|FdBA GEFG|(3ABA Ed dcdB|GABG A2:|

